X: 29
M: C|
L: 1/8
K: F
"F"F2EF "Gm"G2FG | "A/F7"A2GA "Bb"B2AB | "F"c2cB "C7"cdcB |1"F"A2F2 "C7"F2C2 :|2 "F"A2F2 "C7"F2AB ||
"F"c2=Bc "E/C7"d2c2 | "Dm"A2^GA "A/Dm"B2A2 | "Gm"G2^FG "B/G7"A2G2 | "C"E2^DE "E/C7"=D2C2 |
"F"c2=Bc "E/C7"d2c2 | "Dm"A2^GA "A/Dm"B2A2 | "Gm"G2^FG "E/C7"cBAG | "F"A2F2 "C7"FAB=B |
"F"c2=Bc "E/C7"dcBc | "Dm"A2^GA "A/Dm"BAGA | "Gm"G2^FG "B/G7"AGFG | "C"E2^DE "E/C7"=DEDC |
"F"c2=Bc "E/C7"dcBc | "Dm"A2^GA "A/Dm"BAGA | "Gm"G2^FG "E/C7"cBAG | "F"A2F2 "F"F4 |]
by  the late Mary Prentice.  At one of the earlier holidays in 1979, we were playing in Palma Nova
in Majorca and I composed this tune.  John Drewry had devised  a  new  dance  especially  for  the
holiday and presented it to Mary, for her to name. We were very honoured when Mary decided to name
the dance "Lothian Lads" after the band and hence the  name  of  the  original  tune.   As  it  is
dedicated  to  the  band,  the dance has been regularly played by us at dances all over the UK and
Europe.  Although not the first tune I composed, it was the first one to be used as  the  original
tune for a Scottish Country dance.


